svg/emoji_u265f.svg

<svg width="128" height="128" viewBox="0 0 128 128" fill="none" xmlns="http://www.w3.org/2000/svg">
<path d="M79.0502 13.39L49.6302 32.88C49.6302 32.88 50.6302 34.3 51.3102 34.95C52.7302 36.31 53.6502 36.76 53.6502 36.76L53.0702 38.76L45.7402 43.01C45.7402 43.01 45.4802 46.37 49.2202 48.31C52.3202 49.92 55.4102 49.93 55.4102 49.93V54.76C55.4102 54.76 58.4902 60.76 64.7502 60.76C71.0102 60.76 74.0002 53.93 74.0002 53.93L74.0802 49.76C74.0802 49.76 76.9002 49.48 79.5902 47.91C81.6302 46.71 82.3502 44.75 82.3702 43.08C82.3902 41.66 82.2602 41.38 82.2602 41.38L73.7402 36.93C73.7402 36.93 77.5302 34.63 79.5702 29.43C83.4102 19.68 79.0502 13.39 79.0502 13.39Z" fill="#474C50" style="fill:#474C50;fill:color(display-p3 0.2784 0.2980 0.3137);fill-opacity:1;"/>
<path d="M63.3201 76.52L42.1101 81.57C42.1101 81.57 41.5501 82.35 41.5601 83.19C41.5801 84.6 42.1801 84.93 42.1801 84.93L33.7101 95.2C33.7101 95.2 32.7201 97.23 32.7701 99.8C32.8201 102.26 33.8401 103.77 33.9801 103.7L31.2301 107.37L29.4801 108.12C29.4801 108.12 28.5301 109.66 28.6501 111.54C28.8001 113.86 30.3001 116.33 36.1501 119.04C42.2001 121.85 48.7401 124.37 63.9101 124.37C79.0801 124.37 90.5801 121.37 95.3301 118.04C100.08 114.71 100.46 111.81 100.54 110.56C100.61 109.47 100.33 108.53 99.9901 107.87C99.9501 107.8 99.8601 107.66 99.8601 107.66L96.1101 103.61C96.1101 103.61 97.0101 101.38 96.9001 99.01C96.7601 96.02 95.2501 93.86 95.2501 93.86L86.4101 86.19L86.4901 84.19C86.4901 84.19 86.6401 83.55 86.3501 82.48C86.1001 81.56 85.9001 81.05 85.6901 80.73C85.0701 79.78 84.3101 79.88 84.3101 79.88L63.3201 76.52Z" fill="#474C50" style="fill:#474C50;fill:color(display-p3 0.2784 0.2980 0.3137);fill-opacity:1;"/>
<path d="M49.6004 32.88C49.6004 32.88 44.9104 27.09 46.9104 17.92C48.9104 8.74997 57.1504 2.83997 66.4904 4.16997C75.8304 5.49997 79.5804 14.34 79.5804 14.34C79.5804 14.34 79.3104 25.36 69.2204 30.7C59.1304 36.04 49.6004 32.88 49.6004 32.88Z" fill="#5E6367" style="fill:#5E6367;fill:color(display-p3 0.3686 0.3882 0.4039);fill-opacity:1;"/>
<path d="M62.6598 7.09003C64.8698 8.35003 63.6698 9.76003 60.3298 11.92C57.2298 13.93 53.4998 19.84 52.4898 21.34C51.4798 22.84 50.8198 23.01 50.3198 22.67C49.8198 22.33 48.2398 21.5 49.6498 16.75C51.0598 12 54.8198 9.00003 56.6498 7.91003C58.4898 6.84003 60.9098 6.09003 62.6598 7.09003Z" fill="#B0B0AF" style="fill:#B0B0AF;fill:color(display-p3 0.6902 0.6902 0.6863);fill-opacity:1;"/>
<path d="M53.6501 36.76C53.6501 36.76 58.3601 39.9 63.4401 39.96C70.6101 40.03 73.7401 36.93 73.7401 36.93C73.7401 36.93 77.1302 36.58 79.5502 37.84C81.6702 38.94 82.2602 41.4 82.2602 41.4C82.2602 41.4 80.0201 47.23 63.7001 46.79C47.3701 46.35 45.7401 43.02 45.7401 43.02C45.7401 43.02 45.3101 39.59 48.2201 37.91C50.6601 36.49 53.6501 36.76 53.6501 36.76Z" fill="#5E6367" style="fill:#5E6367;fill:color(display-p3 0.3686 0.3882 0.4039);fill-opacity:1;"/>
<path d="M50.6304 38.49C49.0704 38.34 46.6804 39.3 46.9704 41.42C47.2604 43.54 52.1004 44.5 54.4404 44.64C56.7804 44.78 60.5204 45.08 60.4404 42.88C60.3704 40.68 54.7304 41.78 52.5304 40.61C50.3304 39.44 52.9004 38.71 50.6304 38.49Z" fill="#AEAEAF" style="fill:#AEAEAF;fill:color(display-p3 0.6824 0.6824 0.6863);fill-opacity:1;"/>
<path d="M55.4004 54.7699C55.4004 54.7699 58.3904 56.0699 64.6104 56.0699C70.8304 56.0699 73.9903 53.9399 73.9903 53.9399C73.9903 53.9399 73.9804 60.9799 76.9104 68.0799C79.8404 75.1799 81.9604 78.6199 81.9604 78.6199C81.9604 78.6199 83.8703 78.4899 84.6003 79.0799C85.3303 79.6699 86.0404 81.4599 86.0404 81.4599C85.8004 81.7899 80.5904 86.6199 64.9404 86.2799C48.2504 85.9199 42.1104 81.5599 42.1104 81.5599C42.1104 81.5599 43.0904 79.9299 44.2104 79.5599C45.5603 79.1099 46.4304 79.2299 46.4304 79.2299C46.4304 79.2299 51.4404 73.1999 53.4904 67.2699C55.5304 61.3399 55.4004 54.7699 55.4004 54.7699Z" fill="#5E6367" style="fill:#5E6367;fill:color(display-p3 0.3686 0.3882 0.4039);fill-opacity:1;"/>
<path d="M64.2497 81.69C70.3997 81.69 75.7497 80.45 78.0197 79.79C80.2897 79.13 82.0097 78.02 83.7697 78.61C84.7597 78.94 85.1397 79.69 85.1397 79.69C85.1397 79.69 78.5997 85.19 64.1797 84.63C48.8097 84.04 42.9297 80.52 42.9297 80.52C42.9297 80.52 43.9297 79.09 46.1797 79.23C46.7797 79.27 47.3397 79.44 50.7797 80.24C54.2197 81.04 58.2397 81.69 64.2497 81.69Z" fill="#B0B0AF" style="fill:#B0B0AF;fill:color(display-p3 0.6902 0.6902 0.6863);fill-opacity:1;"/>
<path d="M42.18 84.9199C42.18 84.9199 52.31 88.9299 64.25 89.0899C80.22 89.2999 86.5 84.1899 86.5 84.1899C86.5 84.1899 90.25 87.6299 91.78 89.2399C93.31 90.8499 95.25 93.8599 95.25 93.8599C95.25 93.8599 88.56 104.91 64.11 104.69C39.65 104.47 33.71 95.1999 33.71 95.1999C33.71 95.1999 35 91.8199 37.67 89.0199C39.31 87.2899 42.18 84.9199 42.18 84.9199Z" fill="#5E6367" style="fill:#5E6367;fill:color(display-p3 0.3686 0.3882 0.4039);fill-opacity:1;"/>
<path d="M41.9896 89.45C40.1696 88.96 36.5696 92.6 37.0096 94.87C37.2296 96.03 37.8796 97.32 41.3996 98.6C44.6196 99.77 49.5996 99.71 49.5996 97.79C49.5996 95.3 45.2796 95.53 44.1796 93.32C43.3096 91.58 43.8896 89.97 41.9896 89.45Z" fill="#B0B0AF" style="fill:#B0B0AF;fill:color(display-p3 0.6902 0.6902 0.6863);fill-opacity:1;"/>
<path d="M33.9805 103.69C33.9805 103.69 32.5405 104.67 31.4205 105.77C30.0105 107.16 29.4805 108.11 29.4805 108.11C29.4805 108.11 32.7105 119.73 63.7505 119.98C94.1405 120.23 99.8605 107.65 99.8605 107.65C99.8605 107.65 98.8705 106.22 97.8305 105.18C96.7905 104.14 96.1005 103.61 96.1005 103.61C96.1005 103.61 87.2905 113.56 63.5405 113.3C40.9005 113.07 33.9805 103.69 33.9805 103.69Z" fill="#5E6367" style="fill:#5E6367;fill:color(display-p3 0.3686 0.3882 0.4039);fill-opacity:1;"/>
<path d="M32.42 106.89C31.59 107.82 31.62 109.75 34.07 111.36C36.69 113.08 40.91 115.53 46.96 116.66C53.12 117.81 59.54 117.46 59.14 115.4C58.87 113.99 53.53 115.57 44.06 111.82C38.5 109.62 36.78 108.41 35.65 107.61C34.92 107.08 33.62 105.55 32.42 106.89Z" fill="#B0B0AF" style="fill:#B0B0AF;fill:color(display-p3 0.6902 0.6902 0.6863);fill-opacity:1;"/>
<path d="M39.5901 96.28C41.5201 96.28 41.5201 93.28 39.5901 93.28C37.6601 93.28 37.6601 96.28 39.5901 96.28Z" fill="#B0B0AF" style="fill:#B0B0AF;fill:color(display-p3 0.6902 0.6902 0.6863);fill-opacity:1;"/>
</svg>

<?xml version="1.0" encoding="utf-8"?>
<!-- Generator: Adobe Illustrator 25.2.3, SVG Export Plug-In . SVG Version: 6.00 Build 0)  -->
<svg version="1.1" id="Layer_2" xmlns="http://www.w3.org/2000/svg" xmlns:xlink="http://www.w3.org/1999/xlink" x="0px" y="0px"
	 viewBox="0 0 128 128" style="enable-background:new 0 0 128 128;" xml:space="preserve">
<path style="fill:#474C50;" d="M79.05,13.39L49.63,32.88c0,0,1,1.42,1.68,2.07c1.42,1.36,2.34,1.81,2.34,1.81l-0.58,2l-7.33,4.25
	c0,0-0.26,3.36,3.48,5.3c3.1,1.61,6.19,1.62,6.19,1.62v4.83c0,0,3.08,6,9.34,6s9.25-6.83,9.25-6.83l0.08-4.17
	c0,0,2.82-0.28,5.51-1.85c2.04-1.2,2.76-3.16,2.78-4.83c0.02-1.42-0.11-1.7-0.11-1.7l-8.52-4.45c0,0,3.79-2.3,5.83-7.5
	C83.41,19.68,79.05,13.39,79.05,13.39z"/>
<path style="fill:#474C50;" d="M63.32,76.52l-21.21,5.05c0,0-0.56,0.78-0.55,1.62c0.02,1.41,0.62,1.74,0.62,1.74L33.71,95.2
	c0,0-0.99,2.03-0.94,4.6c0.05,2.46,1.07,3.97,1.21,3.9l-2.75,3.67l-1.75,0.75c0,0-0.95,1.54-0.83,3.42c0.15,2.32,1.65,4.79,7.5,7.5
	c6.05,2.81,12.59,5.33,27.76,5.33s26.67-3,31.42-6.33c4.75-3.33,5.13-6.23,5.21-7.48c0.07-1.09-0.21-2.03-0.55-2.69
	c-0.04-0.07-0.13-0.21-0.13-0.21l-3.75-4.05c0,0,0.9-2.23,0.79-4.6c-0.14-2.99-1.65-5.15-1.65-5.15l-8.84-7.67l0.08-2
	c0,0,0.15-0.64-0.14-1.71c-0.25-0.92-0.45-1.43-0.66-1.75c-0.62-0.95-1.38-0.85-1.38-0.85L63.32,76.52z"/>
<path style="fill:#5E6367;" d="M49.6,32.88c0,0-4.69-5.79-2.69-14.96S57.15,2.84,66.49,4.17s13.09,10.17,13.09,10.17
	S79.31,25.36,69.22,30.7S49.6,32.88,49.6,32.88z"/>
<path style="fill:#FFFFFE;" d="M62.66,7.09c2.21,1.26,1.01,2.67-2.33,4.83c-3.1,2.01-6.83,7.92-7.84,9.42s-1.67,1.67-2.17,1.33
	s-2.08-1.17-0.67-5.92s5.17-7.75,7-8.84C58.49,6.84,60.91,6.09,62.66,7.09z"/>
<path style="fill:#5E6367;" d="M53.65,36.76c0,0,4.71,3.14,9.79,3.2c7.17,0.07,10.3-3.03,10.3-3.03s3.39-0.35,5.81,0.91
	c2.12,1.1,2.71,3.56,2.71,3.56s-2.24,5.83-18.56,5.39c-16.33-0.44-17.96-3.77-17.96-3.77s-0.43-3.43,2.48-5.11
	C50.66,36.49,53.65,36.76,53.65,36.76z"/>
<path style="fill:#AEAEAF;" d="M50.63,38.49c-1.56-0.15-3.95,0.81-3.66,2.93c0.29,2.12,5.13,3.08,7.47,3.22s6.08,0.44,6-1.76
	c-0.07-2.2-5.71-1.1-7.91-2.27S52.9,38.71,50.63,38.49z"/>
<path style="fill:#5E6367;" d="M55.4,54.77c0,0,2.99,1.3,9.21,1.3c6.22,0,9.38-2.13,9.38-2.13s-0.01,7.04,2.92,14.14
	c2.93,7.1,5.05,10.54,5.05,10.54s1.91-0.13,2.64,0.46c0.73,0.59,1.44,2.38,1.44,2.38c-0.24,0.33-5.45,5.16-21.1,4.82
	c-16.69-0.36-22.83-4.72-22.83-4.72s0.98-1.63,2.1-2c1.35-0.45,2.22-0.33,2.22-0.33s5.01-6.03,7.06-11.96
	C55.53,61.34,55.4,54.77,55.4,54.77z"/>
<path style="fill:#B0B0AF;" d="M64.25,81.69c6.15,0,11.5-1.24,13.77-1.9s3.99-1.77,5.75-1.18c0.99,0.33,1.37,1.08,1.37,1.08
	s-6.54,5.5-20.96,4.94c-15.37-0.59-21.25-4.11-21.25-4.11s1-1.43,3.25-1.29c0.6,0.04,1.16,0.21,4.6,1.01S58.24,81.69,64.25,81.69z"
	/>
<path style="fill:#5E6367;" d="M42.18,84.92c0,0,10.13,4.01,22.07,4.17c15.97,0.21,22.25-4.9,22.25-4.9s3.75,3.44,5.28,5.05
	s3.47,4.62,3.47,4.62s-6.69,11.05-31.14,10.83c-24.46-0.22-30.4-9.49-30.4-9.49s1.29-3.38,3.96-6.18
	C39.31,87.29,42.18,84.92,42.18,84.92z"/>
<path style="fill:#B0B0AF;" d="M41.99,89.45c-1.82-0.49-5.42,3.15-4.98,5.42c0.22,1.16,0.87,2.45,4.39,3.73
	c3.22,1.17,8.2,1.11,8.2-0.81c0-2.49-4.32-2.26-5.42-4.47C43.31,91.58,43.89,89.97,41.99,89.45z"/>
<path style="fill:#5E6367;" d="M33.98,103.69c0,0-1.44,0.98-2.56,2.08c-1.41,1.39-1.94,2.34-1.94,2.34s3.23,11.62,34.27,11.87
	c30.39,0.25,36.11-12.33,36.11-12.33s-0.99-1.43-2.03-2.47c-1.04-1.04-1.73-1.57-1.73-1.57s-8.81,9.95-32.56,9.69
	C40.9,113.07,33.98,103.69,33.98,103.69z"/>
<path style="fill:#B0B0AF;" d="M32.42,106.89c-0.83,0.93-0.8,2.86,1.65,4.47c2.62,1.72,6.84,4.17,12.89,5.3
	c6.16,1.15,12.58,0.8,12.18-1.26c-0.27-1.41-5.61,0.17-15.08-3.58c-5.56-2.2-7.28-3.41-8.41-4.21
	C34.92,107.08,33.62,105.55,32.42,106.89z"/>
<g>
	<g>
		<path style="fill:#B0B0AF;" d="M39.59,96.28c1.93,0,1.93-3,0-3C37.66,93.28,37.66,96.28,39.59,96.28L39.59,96.28z"/>
	</g>
</g>
</svg>
